X: 5
%%topspace 0cm
T: Spel-Gulle's Polska
I: Spel-Gulle's PolskaM-2Dmhambo
C: M-2
M: 3/4
Z: Transcribed to abc by Mary Lou Knack
R: hambo
K: Dm
"Dm"d2 d>^c d>e| f2 f>e d^c/d/| "A"e2 e>^c AB/c/| "Dm"d2 d>A F>A|
"Dm"d2 d>^c d>e| f2 f>e d^c/d/| "A"e2 e>^c AB/c/| "Dm"d2 d4:|
\
|: "F"a2 f>a f>a| (3aga b>a g>f| "A"g2 e>g e>g| (3gfg a>g f>e|
   "Dm"d2 d>^c d>e| f2 f>e d^c/d/| "A"e2 e>^c AB/c/| "Dm"d2 d4:|
%%text 9/1/98.  From Matt Fichtenbaum 1980
